packages/sources/icons/src/vitamix/youtube-fill.svg

<svg width="16" height="16" viewBox="0 0 16 16" xmlns="http://www.w3.org/2000/svg"><path fill-rule="evenodd" clip-rule="evenodd" d="M14.6666 7.99999C14.6666 7.99999 14.6666 5.51999 14.3619 4.33199C14.1946 3.67732 13.6999 3.16132 13.0699 2.98399C11.9306 2.66666 7.99992 2.66666 7.99992 2.66666C7.99992 2.66666 4.07125 2.66666 2.92992 2.98399C2.30259 3.15866 1.80725 3.67532 1.63792 4.33199C1.33325 5.51999 1.33325 7.99999 1.33325 7.99999C1.33325 7.99999 1.33325 10.48 1.63792 11.668C1.80525 12.3227 2.29992 12.8387 2.92992 13.016C4.07125 13.3333 7.99992 13.3333 7.99992 13.3333C7.99992 13.3333 11.9306 13.3333 13.0699 13.016C13.6973 12.8413 14.1926 12.3247 14.3619 11.668C14.6666 10.48 14.6666 7.99999 14.6666 7.99999ZM10.6666 7.99999L6.66658 10.3333V5.66666L10.6666 7.99999Z"/></svg>

<svg width="16" height="16" xmlns="http://www.w3.org/2000/svg"><path fill-rule="evenodd" clip-rule="evenodd" d="M14.667 8s0-2.48-.305-3.668a1.874 1.874 0 0 0-1.292-1.348C11.93 2.667 8 2.667 8 2.667s-3.929 0-5.07.317a1.874 1.874 0 0 0-1.292 1.348C1.333 5.52 1.333 8 1.333 8s0 2.48.305 3.668c.167.655.662 1.17 1.292 1.348 1.141.317 5.07.317 5.07.317s3.93 0 5.07-.317a1.874 1.874 0 0 0 1.292-1.348c.305-1.188.305-3.668.305-3.668Zm-4 0-4 2.333V5.667l4 2.333Z"/></svg>
